Gruvbox-Plus-Dark/apps/scalable/Unity.svg

<svg xmlns="http://www.w3.org/2000/svg" style="isolation:isolate" width="256" height="256" viewBox="0 0 256 256">
 <g filter="url(#I2XYGoHxzEJLmxsSaiT0VIaxtVWHTprM)">
  <linearGradient id="_lgradient_26" x1="0" x2="0" y1="0" y2="1" gradientTransform="matrix(244.648309,0,0,228.338396,5.68,11.95)" gradientUnits="userSpaceOnUse">
   <stop offset="0%" style="stop-color:#cc241d"/>
   <stop offset="50%" style="stop-color:#cc241d"/>
   <stop offset="100%" style="stop-color:#9d0006"/>
  </linearGradient>
  <path fill="url(#_lgradient_26)" d="M 165.688919 11.95 C 239.744626 11.95 250.328309 22.507198 250.328309 96.493859 L 250.328309 155.744653 C 250.328309 229.73091 239.744626 240.288396 165.688919 240.288396 L 90.319393 240.288396 C 16.26369 240.288396 5.68 229.73091 5.68 155.744653 L 5.68 96.493859 C 5.68 22.507198 16.26369 11.95 90.319393 11.95 L 165.688919 11.95 Z"/>
 </g>
 <g opacity=".4">
  <linearGradient id="_lgradient_27" x1=".517" x2=".517" y1="0" y2="1" gradientTransform="matrix(244.65,0,0,228.34,5.68,11.95)" gradientUnits="userSpaceOnUse">
   <stop offset="0%" style="stop-color:#ebdbb2"/>
   <stop offset="12.5%" stop-opacity=".098" style="stop-color:#ebdbb2"/>
   <stop offset="92.5%" stop-opacity=".098" style="stop-color:#282828"/>
   <stop offset="100%" stop-opacity=".498" style="stop-color:#282828"/>
  </linearGradient>
  <path fill="url(#_lgradient_27)" fill-rule="evenodd" d="M 165.06803 11.951234 C 169.395994 11.941409 173.723944 11.990533 178.051908 12.088781 C 181.927398 12.167379 185.802873 12.31475 189.678362 12.540721 C 193.1309 12.737216 196.583423 13.022134 200.026115 13.395476 C 203.085193 13.729518 206.144271 14.181458 209.173842 14.741469 C 211.888645 15.242533 214.57394 15.881143 217.219897 16.6573 C 219.619947 17.354858 221.970814 18.219439 224.242988 19.241215 C 226.357793 20.184394 228.384061 21.304417 230.302129 22.591462 C 232.141505 23.829383 233.862851 25.244151 235.436659 26.80629 C 237.000621 28.378252 238.417046 30.087764 239.656409 31.924995 C 240.944972 33.840824 242.066305 35.864728 243.020409 37.967229 C 244.043389 40.246576 244.908985 42.584873 245.617197 44.972292 C 246.394255 47.615155 247.033606 50.297317 247.535265 53.008956 C 248.095924 56.034984 248.548399 59.080665 248.882828 62.13617 C 249.256611 65.574836 249.541856 69.013506 249.738578 72.462003 C 249.964823 76.323139 250.112361 80.194101 250.200884 84.055237 C 250.289421 88.378131 250.338591 92.701032 250.32876 97.014106 L 250.32876 155.225886 C 250.338591 159.54878 250.289421 163.861854 250.200884 168.184747 C 250.112361 172.05571 249.964823 175.916853 249.738578 179.777981 C 249.541856 183.226485 249.256611 186.674975 248.882828 190.103826 C 248.548399 193.15933 248.095924 196.214835 247.535265 199.240851 C 247.033606 201.942664 246.394255 204.624837 245.617197 207.267703 C 244.908985 209.655115 244.043389 212.003235 243.020409 214.272755 C 242.066305 216.38509 240.944972 218.399156 239.656409 220.314999 C 238.417046 222.152226 237.000621 223.871561 235.436659 225.433697 C 233.862851 226.995832 232.141505 228.410601 230.302129 229.648532 C 228.384061 230.935575 226.357793 232.055598 224.242988 232.998768 C 221.970814 234.020552 219.619947 234.885137 217.219897 235.592507 C 214.57394 236.368672 211.888645 237.007276 209.173842 237.498515 C 206.144271 238.068354 203.085193 238.510465 200.026115 238.844519 C 196.583423 239.21785 193.1309 239.502777 189.678362 239.699269 C 185.802873 239.925235 181.927398 240.072615 178.051908 240.161035 C 173.723944 240.249454 169.395994 240.298581 165.06803 240.288762 L 90.941963 240.288762 C 86.614006 240.298581 82.286049 240.249454 77.9581 240.161035 C 74.08261 240.072615 70.20712 239.925235 66.331638 239.699269 C 62.879108 239.502777 59.426578 239.21785 55.983886 238.844519 C 52.924808 238.510465 49.865733 238.068354 46.836162 237.498515 C 44.121356 237.007276 41.436057 236.368672 38.7901 235.592507 C 36.390053 234.885137 34.039187 234.020552 31.767009 232.998768 C 29.652213 232.055598 27.625943 230.935575 25.707871 229.648532 C 23.868489 228.410601 22.147143 226.995832 20.573343 225.433697 C 19.009377 223.871561 17.592955 222.152226 16.353586 220.314999 C 15.065036 218.399156 13.943701 216.38509 12.989584 214.272755 C 11.966612 212.003235 11.101021 209.655115 10.392811 207.267703 C 9.615746 204.624837 8.976389 201.942664 8.47474 199.240851 C 7.914072 196.214835 7.461604 193.15933 7.127172 190.103826 C 6.753394 186.674975 6.468142 183.226485 6.271417 179.777981 C 6.045183 175.916853 5.897639 172.05571 5.809112 168.184747 C 5.720586 163.861854 5.671405 159.54878 5.681241 155.225886 L 5.681241 97.014106 C 5.671405 92.701032 5.720586 88.378131 5.809112 84.055237 C 5.897639 80.194101 6.045183 76.323139 6.271417 72.462003 C 6.468142 69.013506 6.753394 65.574836 7.127172 62.13617 C 7.461604 59.080665 7.914072 56.034984 8.47474 53.008956 C 8.976389 50.297317 9.615746 47.615155 10.392811 44.972292 C 11.101021 42.584873 11.966612 40.246576 12.989584 37.967229 C 13.943701 35.864728 15.065036 33.840824 16.353586 31.924995 C 17.592955 30.087764 19.009377 28.378252 20.573343 26.80629 C 22.147143 25.244151 23.868489 23.829383 25.707871 22.591462 C 27.625943 21.304417 29.652213 20.184394 31.767009 19.241215 C 34.039187 18.219439 36.390053 17.354858 38.7901 16.6573 C 41.436057 15.881143 44.121356 15.242533 46.836162 14.741469 C 49.865733 14.181458 52.924808 13.729518 55.983886 13.395476 C 59.426578 13.022134 62.879108 12.737216 66.331638 12.540721 C 70.20712 12.31475 74.08261 12.167379 77.9581 12.088781 C 82.286049 11.990533 86.614006 11.941409 90.941963 11.951234 L 165.06803 11.951234 Z M 165.077876 15.959741 C 169.376317 15.949916 173.674759 15.99904 177.973216 16.087463 C 181.799522 16.175886 185.625827 16.323257 189.452133 16.539402 C 192.835809 16.735898 196.219486 17.010992 199.583486 17.384332 C 202.554026 17.698726 205.514751 18.131016 208.445953 18.681203 C 211.023049 19.152792 213.580483 19.761928 216.098564 20.498786 C 218.321569 21.147221 220.495374 21.952852 222.600334 22.896029 C 224.508571 23.750785 226.338116 24.762737 228.069293 25.922059 C 229.692286 27.012609 231.207063 28.260355 232.59398 29.645648 C 233.980897 31.030941 235.230091 32.543956 236.331763 34.165043 C 237.492434 35.894202 238.505568 37.711787 239.361333 39.607968 C 240.305606 41.720292 241.112187 43.891565 241.761369 46.102139 C 242.508934 48.617282 243.108947 51.161898 243.590914 53.735987 C 244.131912 56.663768 244.564709 59.6112 244.889308 62.578282 C 245.263091 65.938355 245.538505 69.308252 245.735227 72.687976 C 245.951626 76.509812 246.10901 80.321821 246.187687 84.143656 C 246.276225 88.437084 246.325394 92.720685 246.325394 97.014106 C 246.325394 97.014106 246.325394 97.014106 246.325394 97.014106 L 246.325394 155.225886 C 246.325394 155.225886 246.325394 155.225886 246.325394 155.225886 C 246.325394 159.519306 246.276225 163.802907 246.187687 168.096328 C 246.10901 171.918164 245.951626 175.739999 245.735227 179.552015 C 245.538505 182.931739 245.263091 186.301629 244.889308 189.671533 C 244.564709 192.628784 244.131912 195.576216 243.590914 198.503994 C 243.108947 201.078094 242.508934 203.622706 241.761369 206.137845 C 241.112187 208.358253 240.305606 210.5197 239.361333 212.63202 C 238.505568 214.528209 237.492434 216.355617 236.331763 218.074952 C 235.230091 219.705853 233.980897 221.218876 232.59398 222.604172 C 231.207063 223.979634 229.692286 225.227385 228.069293 226.317935 C 226.338116 227.477251 224.508571 228.489201 222.600334 229.343951 C 220.495374 230.296956 218.321569 231.092775 216.098564 231.741198 C 213.580483 232.478056 211.023049 233.087202 208.445953 233.558787 C 205.514751 234.108972 202.554026 234.541264 199.583486 234.865483 C 196.219486 235.228995 192.835809 235.513922 189.452133 235.70058 C 185.625827 235.916726 181.799522 236.073926 177.973216 236.152526 C 173.674759 236.25078 169.376317 236.290072 165.077876 236.290072 C 165.077876 236.290072 165.077876 236.290072 165.06803 236.290072 L 90.941963 236.290072 C 90.932125 236.290072 90.932125 236.290072 90.932125 236.290072 C 86.633683 236.290072 82.335234 236.25078 78.036784 236.152526 C 74.210479 236.073926 70.384173 235.916726 66.557868 235.70058 C 63.174195 235.513922 59.790522 235.228995 56.426518 234.865483 C 53.455967 234.541264 50.495253 234.108972 47.564048 233.558787 C 44.986944 233.087202 42.429517 232.478056 39.911433 231.741198 C 37.688439 231.092775 35.514626 230.296956 33.409665 229.343951 C 31.501429 228.489201 29.671886 227.477251 27.940703 226.317935 C 26.31772 225.227385 24.802935 223.979634 23.416022 222.604172 C 22.029109 221.218876 20.779904 219.705853 19.678243 218.074952 C 18.517564 216.355617 17.504428 214.528209 16.648674 212.63202 C 15.704392 210.5197 14.897819 208.358253 14.248626 206.137845 C 13.50107 203.622706 12.901057 201.078094 12.419081 198.503994 C 11.878086 195.576216 11.445291 192.628784 11.120694 189.671533 C 10.746916 186.301629 10.471501 182.931739 10.274776 179.552015 C 10.058378 175.739999 9.900997 171.918164 9.822307 168.096328 C 9.733781 163.802907 9.6846 159.519306 9.6846 155.225886 C 9.6846 155.225886 9.6846 155.225886 9.6846 155.225886 L 9.6846 97.014106 C 9.6846 97.014106 9.6846 97.014106 9.6846 97.014106 C 9.6846 92.720685 9.733781 88.437084 9.822307 84.143656 C 9.900997 80.321821 10.058378 76.509812 10.274776 72.687976 C 10.471501 69.308252 10.746916 65.938355 11.120694 62.578282 C 11.445291 59.6112 11.878086 56.663768 12.419081 53.735987 C 12.901057 51.161898 13.50107 48.617282 14.248626 46.102139 C 14.897819 43.891565 15.704392 41.720292 16.648674 39.607968 C 17.504428 37.711787 18.517564 35.894202 19.678243 34.165043 C 20.779904 32.543956 22.029109 31.030941 23.416022 29.645648 C 24.802935 28.260355 26.31772 27.012609 27.940703 25.922059 C 29.671886 24.762737 31.501429 23.750785 33.409665 22.896029 C 35.514626 21.952852 37.688439 21.147221 39.911433 20.498786 C 42.429517 19.761928 44.986944 19.152792 47.564048 18.681203 C 50.495253 18.131016 53.455967 17.698726 56.426518 17.384332 C 59.790522 17.010992 63.174195 16.735898 66.557868 16.539402 C 70.384173 16.323257 74.210479 16.175886 78.036784 16.087463 C 82.335234 15.99904 86.633683 15.949916 90.932125 15.959741 C 90.932125 15.959741 90.932125 15.959741 90.941963 15.959741 L 165.06803 15.959741 C 165.077876 15.959741 165.077876 15.959741 165.077876 15.959741 Z"/>
 </g>
 <g>
  <path fill="#ebdbb2" fill-opacity=".941" d="M 200.131583 90.348068 C 198.207769 97.588269 196.065683 104.741171 193.288505 111.214353 C 192.313306 113.208685 191.21546 115.246511 189.589545 116.577846 C 188.089246 117.746719 186.174666 118.305999 184.132833 118.335586 C 182.969886 118.288242 181.744786 118.00416 180.712039 117.687534 L 181.451831 114.543417 C 183.454088 115.393383 186.047424 115.324931 187.647737 114.081047 C 188.503912 113.418191 189.269091 112.363488 189.959587 110.84431 C 186.21299 103.677793 183.277199 96.305322 181.35965 89.020441 L 185.428507 89.020441 C 187.023978 94.913329 189.223645 101.213692 191.624413 106.405557 C 193.883502 100.183609 195.187259 94.494899 196.525389 89.020441 L 199.854454 89.020441 C 200.472874 89.028994 200.402941 89.425281 200.131583 90.348068 Z"/>
  <path fill="#ebdbb2" fill-opacity=".941" d="M 199.852682 89.021474 C 199.947312 89.451323 200.041682 89.916769 200.130104 90.348898 C 200.242073 89.906293 200.390718 89.467747 200.5 89.021474 L 199.852682 89.021474 Z"/>
  <path fill="#ebdbb2" fill-opacity=".941" d="M 158.332581 80.052234 C 159.615184 80.052087 160.820236 80.840854 160.82938 82.549032 C 160.820214 84.118726 159.680431 85.064773 158.332581 85.045831 C 156.94888 85.064773 155.931576 84.124731 155.928257 82.549032 C 155.978129 80.826647 156.97578 80.042882 158.332581 80.052234 Z"/>
  <path fill="#ebdbb2" fill-opacity=".941" d="M 170.7241 82.27161 L 170.7241 89.022067 L 178.954141 89.022067 L 178.954141 92.258804 L 170.7241 92.258804 L 170.7241 102.153671 C 170.7241 103.230809 170.835809 104.117316 171.001522 104.835418 C 171.374387 106.664895 172.395981 107.487041 174.700483 107.609638 C 176.93581 107.567708 177.548868 107.243326 178.954287 106.592424 L 179.788777 109.826796 C 177.965102 110.661196 176.536056 110.895293 174.425284 110.936485 C 171.764783 110.828743 170.479527 110.913106 168.506947 108.717108 C 166.945748 106.845553 166.938321 104.385182 166.934889 102.243927 L 166.934889 83.009331 L 170.7241 82.27161 Z"/>
  <path fill="#ebdbb2" fill-opacity=".941" d="M 55.5 87.912379 L 70.850687 87.912379 L 70.850687 133.0397 C 70.850659 143.534981 72.529984 150.981431 75.844284 155.511033 C 79.158584 160.040634 84.738361 162.35411 92.581935 162.35411 C 98.433394 162.204054 106.687699 161.641783 109.689476 160.689578 L 109.689476 87.911786 L 125.040163 87.911786 L 125.040163 171.600033 C 113.600019 174.482261 102.680685 175.920417 90.920952 175.947057 C 63.862312 176.083172 55.623988 158.650713 55.502661 136.276437 L 55.5 87.912379 Z"/>
  <path fill="#ebdbb2" fill-opacity=".941" d="M 145.38474 89.299489 C 147.827422 90.296785 149.920855 92.558126 149.91582 98.454564 L 149.91582 110.568807 L 146.031911 110.568807 L 146.031911 99.286976 C 145.974127 95.47616 145.648673 93.231334 143.257691 92.351278 C 141.469969 91.743701 140.613535 91.523482 136.414614 92.351278 L 136.414614 110.568513 L 132.530705 110.568513 L 132.530705 89.576764 C 137.512765 88.60012 141.863334 87.987452 145.38474 89.299342 L 145.38474 89.299489 Z"/>
  <path fill="#ebdbb2" fill-opacity=".941" d="M 156.481622 89.022067 L 160.365531 89.022067 L 160.365531 110.568366 L 156.481622 110.568366 L 156.481622 89.022067 Z"/>
 </g>
</svg>

<svg width="256" height="256" fill="none" version="1.1" viewBox="0 0 256 256" xmlns="http://www.w3.org/2000/svg">
 <g clip-path="url(#clip0)">
  <g fill="#3c3836" filter="url(#filter0_d)">
   <path d="m165.68 11.947c74.055 0 84.639 10.557 84.639 84.544v59.251c0 73.986-10.584 84.543-84.639 84.543h-75.37c-74.056 0-84.639-10.557-84.639-84.543v-59.251c0-73.987 10.584-84.544 84.639-84.544h75.37z" fill="#3c3836"/>
  </g>
  <path d="m208.3 24.58c-10.428-1.9618-24.181-2.6332-42.618-2.6332h-75.37c-18.438 0-32.19 0.6714-42.618 2.6332-10.332 1.9436-16.412 4.9802-20.406 8.9693-3.9929 3.9877-7.0319 10.056-8.9778 20.372-1.9644 10.414-2.6375 24.15-2.6375 42.569v59.251c0 18.419 0.6731 32.155 2.6375 42.569 1.9459 10.315 4.9849 16.384 8.9778 20.372 3.9942 3.989 10.074 7.025 20.406 8.969 10.428 1.962 24.181 2.633 42.618 2.633h75.37c18.437 0 32.19-0.671 42.618-2.633 10.332-1.944 16.412-4.98 20.406-8.969 3.993-3.988 7.032-10.057 8.978-20.372 1.964-10.414 2.637-24.15 2.637-42.569v-59.251c0-18.42-0.673-32.156-2.637-42.569-1.946-10.316-4.985-16.384-8.978-20.372-3.994-3.9891-10.074-7.0257-20.406-8.9693zm42.021 71.911c0-73.987-10.584-84.544-84.639-84.544h-75.37c-74.056 0-84.639 10.557-84.639 84.544v59.251c0 73.986 10.584 84.543 84.639 84.543h75.37c74.055 0 84.639-10.557 84.639-84.543v-59.251z" clip-rule="evenodd" fill="url(#paint1_linear)" fill-rule="evenodd"/>
  <path d="m165.07 11.951c4.328-0.0098 8.656 0.0393 12.984 0.1376 3.875 0.0786 7.751 0.226 11.626 0.4519 3.453 0.1965 6.905 0.4814 10.348 0.8548 3.059 0.334 6.118 0.786 9.148 1.346 2.715 0.501 5.4 1.1397 8.046 1.9158 2.4 0.6976 4.751 1.5622 7.023 2.5839 2.115 0.9432 4.141 2.0632 6.059 3.3503 1.839 1.2379 3.561 2.6527 5.135 4.2148 1.564 1.572 2.98 3.2815 4.219 5.1187 1.289 1.9158 2.41 3.9397 3.364 6.0422 1.023 2.2794 1.889 4.6177 2.597 7.0051 0.777 2.6429 1.417 5.325 1.918 8.0367 0.561 3.026 1.013 6.0717 1.348 9.1272 0.374 3.4386 0.659 6.8773 0.856 10.326 0.226 3.8612 0.373 7.7321 0.462 11.593 0.088 4.3228 0.138 8.6457 0.128 12.959v58.212c0.01 4.323-0.04 8.636-0.128 12.959-0.089 3.871-0.236 7.732-0.462 11.593-0.197 3.449-0.482 6.897-0.856 10.326-0.335 3.055-0.787 6.111-1.348 9.137-0.501 2.702-1.141 5.384-1.918 8.027-0.708 2.387-1.574 4.735-2.597 7.005-0.954 2.112-2.075 4.126-3.364 6.042-1.239 1.837-2.655 3.557-4.219 5.119-1.574 1.562-3.296 2.977-5.135 4.215-1.918 1.287-3.944 2.407-6.059 3.35-2.272 1.022-4.623 1.886-7.023 2.594-2.646 0.776-5.331 1.414-8.046 1.906-3.03 0.569-6.089 1.011-9.148 1.346-3.443 0.373-6.895 0.658-10.348 0.854-3.875 0.226-7.751 0.374-11.626 0.462-4.328 0.088-8.656 0.138-12.984 0.128h-74.126c-4.328 0.01-8.656-0.04-12.984-0.128-3.8755-0.088-7.751-0.236-11.626-0.462-3.4525-0.196-6.905-0.481-10.348-0.854-3.0591-0.335-6.1182-0.777-9.1477-1.346-2.7149-0.492-5.4001-1.13-8.0461-1.906-2.4001-0.708-4.7509-1.572-7.0231-2.594-2.1148-0.943-4.1411-2.063-6.0591-3.35-1.8394-1.238-3.5608-2.653-5.1346-4.215-1.5639-1.562-2.9804-3.282-4.2197-5.119-1.2886-1.916-2.4099-3.93-3.364-6.042-1.023-2.27-1.8886-4.618-2.5968-7.005-0.77706-2.643-1.4164-5.325-1.9181-8.027-0.56067-3.026-1.0131-6.082-1.3476-9.137-0.37377-3.429-0.65903-6.877-0.85575-10.326-0.22623-3.861-0.37378-7.722-0.46231-11.593-0.08852-4.323-0.1377-8.636-0.12787-12.959v-58.212c-0.00983-4.3131 0.03935-8.636 0.12787-12.959 0.08853-3.8612 0.23608-7.7321 0.46231-11.593 0.19672-3.4485 0.48198-6.8872 0.85575-10.326 0.33444-3.0555 0.7869-6.1012 1.3476-9.1272 0.50165-2.7117 1.141-5.3938 1.9181-8.0367 0.7082-2.3874 1.5738-4.7257 2.5968-7.0051 0.9541-2.1025 2.0754-4.1264 3.364-6.0422 1.2393-1.8372 2.6558-3.5467 4.2197-5.1187 1.5738-1.5621 3.2952-2.9769 5.1346-4.2148 1.918-1.2871 3.9443-2.4071 6.0591-3.3503 2.2722-1.0217 4.623-1.8863 7.0231-2.5839 2.646-0.7761 5.3312-1.4148 8.0461-1.9158 3.0295-0.56 6.0886-1.012 9.1477-1.346 3.4427-0.3734 6.8952-0.6583 10.348-0.8548 3.8755-0.2259 7.751-0.3733 11.626-0.4519 4.3279-0.0983 8.6559-0.1474 12.984-0.1376h74.126zm0.01 4.0086c4.298-0.0099 8.597 0.0393 12.895 0.1277 3.827 0.0884 7.653 0.2358 11.479 0.4519 3.384 0.1965 6.767 0.4716 10.131 0.8449 2.971 0.3144 5.932 0.7467 8.863 1.2969 2.577 0.4716 5.134 1.0807 7.653 1.8176 2.223 0.6484 4.396 1.4541 6.501 2.3972 1.909 0.8548 3.738 1.8667 5.469 3.0261 1.623 1.0905 3.138 2.3383 4.525 3.7236s2.636 2.8983 3.738 4.5194c1.16 1.7291 2.174 3.5467 3.029 5.4429 0.945 2.1123 1.751 4.2836 2.4 6.4941 0.748 2.5152 1.348 5.0598 1.83 7.6339 0.541 2.9278 0.974 5.8752 1.298 8.8423 0.374 3.3601 0.65 6.73 0.846 10.11 0.217 3.8218 0.374 7.6338 0.453 11.456 0.088 4.2934 0.137 8.577 0.137 12.87v58.212c0 4.293-0.049 8.577-0.137 12.87-0.079 3.822-0.236 7.644-0.453 11.456-0.196 3.38-0.472 6.75-0.846 10.12-0.324 2.957-0.757 5.904-1.298 8.832-0.482 2.574-1.082 5.119-1.83 7.634-0.649 2.22-1.455 4.382-2.4 6.494-0.855 1.896-1.869 3.724-3.029 5.443-1.102 1.631-2.351 3.144-3.738 4.529-1.387 1.376-2.902 2.623-4.525 3.714-1.731 1.159-3.56 2.171-5.469 3.026-2.105 0.953-4.278 1.749-6.501 2.397-2.519 0.737-5.076 1.346-7.653 1.818-2.931 0.55-5.892 0.982-8.863 1.306-3.364 0.364-6.747 0.649-10.131 0.836-3.826 0.216-7.652 0.373-11.479 0.452-4.298 0.098-8.597 0.137-12.895 0.137h-0.01-74.126-0.0099c-4.2984 0-8.5969-0.039-12.895-0.137-3.8263-0.079-7.6526-0.236-11.479-0.452-3.3837-0.187-6.7674-0.472-10.131-0.836-2.9705-0.324-5.9313-0.756-8.8625-1.306-2.5771-0.472-5.1345-1.081-7.6526-1.818-2.223-0.648-4.3968-1.444-6.5017-2.397-1.9083-0.855-3.7378-1.867-5.469-3.026-1.623-1.091-3.1378-2.338-4.5247-3.714-1.3869-1.385-2.6361-2.898-3.7378-4.529-1.1606-1.719-2.1738-3.547-3.0295-5.443-0.9443-2.112-1.7509-4.274-2.4001-6.494-0.7475-2.515-1.3476-5.06-1.8295-7.634-0.541-2.928-0.9738-5.875-1.2984-8.832-0.3738-3.37-0.6492-6.74-0.8459-10.12-0.2164-3.812-0.37381-7.634-0.4525-11.456-0.08853-4.293-0.13771-8.577-0.13771-12.87v-58.212c0-4.2934 0.04918-8.577 0.13771-12.87 0.07869-3.8219 0.2361-7.6339 0.4525-11.456 0.1967-3.3797 0.4721-6.7496 0.8459-10.11 0.3246-2.9671 0.7574-5.9145 1.2984-8.8423 0.4819-2.5741 1.082-5.1187 1.8295-7.6339 0.6492-2.2105 1.4558-4.3818 2.4001-6.4941 0.8557-1.8962 1.8689-3.7138 3.0295-5.4429 1.1017-1.6211 2.3509-3.1341 3.7378-4.5194s2.9017-2.6331 4.5247-3.7236c1.7312-1.1594 3.5607-2.1713 5.469-3.0261 2.1049-0.9431 4.2787-1.7488 6.5017-2.3972 2.5181-0.7369 5.0755-1.346 7.6526-1.8176 2.9312-0.5502 5.892-0.9825 8.8625-1.2969 3.364-0.3733 6.7477-0.6484 10.131-0.8449 3.8263-0.2161 7.6526-0.3635 11.479-0.4519 4.2984-0.0884 8.5969-0.1376 12.895-0.1277h0.0099 74.126 0.01z" clip-rule="evenodd" fill="url(#paint2_linear)" fill-rule="evenodd" opacity=".4"/>
  <path d="m180.46 61.59-53.847 14.359-8.288 14.359h-16.84l-39.487 39.487 39.487 39.487h16.84l8.288 14.359 53.847 14.359 14.359-53.846-8.289-14.359 8.289-14.359-14.359-53.846zm-20.193 20.62-23.326 40.406h-46.982l29.532-29.54 40.776-10.866zm12.432 7.1795 10.769 40.406-10.769 40.406-23.327-40.406 23.327-40.406zm-82.74 47.585h46.982l23.326 40.407-40.776-10.867-29.532-29.54z" fill="#000" opacity=".2"/>
  <path d="m180.46 58-53.847 14.359-8.288 14.359h-16.84l-39.487 39.487 39.487 39.487h16.84l8.288 14.359 53.847 14.359 14.359-53.846-8.289-14.359 8.289-14.359-14.359-53.846zm-20.193 20.62-23.326 40.406h-46.982l29.532-29.54 40.776-10.866zm12.432 7.1795 10.769 40.406-10.769 40.406-23.327-40.406 23.327-40.406zm-82.74 47.586h46.982l23.326 40.406-40.776-10.866-29.532-29.54z" fill="url(#paint3_linear)"/>
 </g>
 <defs>
  <linearGradient id="paint1_linear" x1="126.49" x2="127.02" y1="11.86" y2="241.04" gradientUnits="userSpaceOnUse">
   <stop stop-color="#bdae93" offset="0"/>
   <stop stop-color="#928374" offset="1"/>
  </linearGradient>
  <linearGradient id="paint2_linear" x1="132.08" x2="132.08" y1="11.95" y2="240.29" gradientUnits="userSpaceOnUse">
   <stop stop-color="#fff" offset="0"/>
   <stop stop-color="#fff" stop-opacity=".098039" offset=".125"/>
   <stop stop-opacity=".098039" offset=".925"/>
   <stop stop-opacity=".49804" offset="1"/>
  </linearGradient>
  <linearGradient id="paint3_linear" x1="62" x2="62" y1="58" y2="194.41" gradientUnits="userSpaceOnUse">
   <stop stop-color="#ebdbb2" offset="1e-7"/>
   <stop stop-color="#a89984" offset="1"/>
  </linearGradient>
  <clipPath id="clip0">
   <rect width="256" height="256" fill="#fff"/>
  </clipPath>
 </defs>
</svg>
